incomeartour/img/icons/flower2.svg

<svg width="25" height="24" viewBox="0 0 25 24" fill="none" xmlns="http://www.w3.org/2000/svg">
<g opacity="0.9">
<path d="M22.771 8.08958C21.4423 6.97741 18.8287 5.92145 17.5086 5.96829C17.4529 5.96989 17.3996 5.97337 17.3485 5.97846L17.2859 5.98435L17.2693 5.92359C16.8174 4.26965 14.7411 1.97464 13.5615 1.23506L12.5045 0.349609L11.0676 1.10123C11.002 1.13308 10.937 1.16654 10.8698 1.20455C9.50735 1.97705 7.46074 4.29642 7.10313 5.8018L7.08787 5.8655L7.02283 5.85881C5.49791 5.70303 2.77998 6.79566 1.54361 7.80585L0.0727539 8.82889L0.522173 10.1324C0.714093 11.6464 2.37874 14.4577 3.65044 15.4246C3.69006 15.4548 3.72994 15.4835 3.76902 15.5105L3.82041 15.5461L3.79499 15.6028C3.15445 17.0258 3.44915 20.3138 4.1368 21.7296L4.43472 23.1281L6.08116 23.08C7.33922 23.1771 10.6019 22.6629 11.9627 21.672L12.009 21.6383L12.0537 21.6747C13.1059 22.5302 15.9333 23.2191 17.5731 23.2191C17.5733 23.2191 17.5736 23.2191 17.5736 23.2191C17.8611 23.2191 18.1052 23.1988 18.2998 23.1584L19.465 23.0189L19.8651 21.8455C20.4329 20.5574 20.8914 17.2677 20.3684 15.7886L20.3496 15.7353L20.3954 15.7027C21.5667 14.867 23.1414 12.3108 23.6091 10.8043L24.1631 9.53822L22.8344 8.14258L22.771 8.08958ZM15.1239 13.8073C15.2545 13.7182 15.3974 13.6464 15.5548 13.6044C15.9218 13.5064 16.3057 13.5562 16.6349 13.7468C17.3145 14.1392 17.5482 15.0113 17.1558 15.6909C16.8927 16.147 16.413 16.4021 15.9207 16.4024C15.6793 16.4024 15.4349 16.3411 15.2114 16.2121C14.7235 15.9302 14.4705 15.4007 14.509 14.8734L12.7333 13.8483V15.8986C13.2095 16.1291 13.5414 16.6128 13.5414 17.1762C13.5414 17.961 12.903 18.5997 12.1182 18.5997C11.3334 18.5997 10.6947 17.961 10.6947 17.1762C10.6947 16.6125 11.0266 16.1288 11.5028 15.8986V13.8483L9.72711 14.8734C9.76565 15.401 9.5127 15.9302 9.02474 16.2121C8.80123 16.3411 8.55685 16.4024 8.31541 16.4024C7.82316 16.4026 7.3435 16.147 7.08038 15.6912C6.68797 15.0116 6.92165 14.1395 7.60126 13.7471C7.9305 13.5568 8.31407 13.5067 8.68132 13.6047C8.83844 13.6467 8.98138 13.7187 9.11227 13.8076L10.8877 12.7827L9.11414 11.7588C8.87672 11.9205 8.59647 12.0088 8.31059 12.0088C8.06942 12.0088 7.82504 11.9475 7.60153 11.8182C6.92192 11.4258 6.68824 10.5538 7.08065 9.87414C7.47278 9.19426 8.34539 8.96031 9.02501 9.35326C9.51297 9.63511 9.76592 10.1643 9.72738 10.6919L11.5031 11.7171V9.6667C11.0269 9.43623 10.695 8.95255 10.695 8.38884C10.695 7.60403 11.3337 6.96563 12.1185 6.96563C12.9033 6.96563 13.5417 7.60403 13.5417 8.38884C13.5417 8.95228 13.2098 9.43623 12.7336 9.6667V11.7171L14.5093 10.6919C14.4708 10.1643 14.7237 9.63511 15.2117 9.35326C15.5409 9.16294 15.9242 9.11262 16.292 9.21086C16.6592 9.30936 16.9663 9.54491 17.1563 9.87414C17.5487 10.5538 17.315 11.4258 16.6354 11.8182C16.4119 11.9473 16.1675 12.0088 15.9264 12.0088C15.6402 12.0088 15.36 11.9202 15.1228 11.7588L13.3492 12.7827L15.1239 13.8073Z" fill="black"/>
</g>
</svg>

<svg width="25" height="24" fill="none" xmlns="http://www.w3.org/2000/svg"><path d="M22.771 8.09c-1.329-1.113-3.942-2.169-5.262-2.122a2.272 2.272 0 00-.16.01l-.063.006-.017-.06c-.452-1.654-2.528-3.95-3.707-4.689L12.505.35l-1.437.751a3.44 3.44 0 00-.198.104c-1.363.772-3.41 3.091-3.767 4.597l-.015.064-.065-.007c-1.525-.156-4.243.937-5.48 1.947L.074 8.829l.45 1.303c.191 1.514 1.856 4.326 3.127 5.293.04.03.08.058.119.085l.051.036-.025.057c-.64 1.423-.346 4.71.342 6.127l.298 1.398 1.646-.048c1.258.097 4.52-.417 5.882-1.408l.046-.034.045.037c1.052.855 3.88 1.544 5.52 1.544.287 0 .531-.02.726-.06l1.165-.14.4-1.173c.568-1.289 1.026-4.578.503-6.057l-.018-.054.045-.032c1.172-.836 2.746-3.392 3.214-4.899l.554-1.266-1.329-1.395-.063-.053zm-7.647 5.717c.13-.089.273-.16.43-.203a1.425 1.425 0 11.366 2.798 1.415 1.415 0 01-1.411-1.529l-1.776-1.025v2.05c.476.231.808.715.808 1.278 0 .785-.638 1.424-1.423 1.424a1.425 1.425 0 01-1.423-1.424c0-.563.332-1.047.808-1.277v-2.05l-1.776 1.024a1.421 1.421 0 01-1.412 1.53 1.424 1.424 0 11.366-2.798c.157.042.3.114.431.203l1.776-1.025-1.774-1.024a1.412 1.412 0 01-1.513.06 1.424 1.424 0 011.423-2.465c.489.281.742.81.703 1.338l1.776 1.025v-2.05a1.421 1.421 0 01-.808-1.278c0-.785.639-1.423 1.423-1.423.785 0 1.424.638 1.424 1.423 0 .563-.332 1.047-.808 1.278v2.05l1.775-1.025a1.421 1.421 0 012.647-.818 1.425 1.425 0 01-1.23 2.135c-.286 0-.566-.089-.803-.25l-1.774 1.024 1.775 1.024z" fill="#000" opacity=".9"/></svg>
